X: 10442
T: THE TRUMPET HORNPIPE
C: Arr. by W. B. Laybourn
R: hornpipe, reel
B: K\"ohler's Violin Repository, v.1, 1885 p.44 #2
F: http://www.archive.org/details/klersviolinrepos01edin
Z: 2011 John Chambers <jc:trillian.mit.edu>
M: C|
L: 1/8
K: Eb
[|\
v(3EEE E2 (3EEE E2 | GEGB eBGE | (3B,B,B, B,2 (3B,B,B, B,2 | DB,DF AFDB, |
(3EEE E2 (3EEE E2 | GEGB eBGc | B>(gf)>(e d)>(cB)>(=A |[1 B)=Adc BA_AF :|[2 [B2D2][B2D2][B2D2]z2 ||
|:\
v(3BBB B2 (3BBB B2 | (c>d)e>d (c>B)A>G | (A>G)A>B | (c>A)F>E | (D>E){G}F>E (D>B,)C>D |
(3EEE ~E2 CEB,E | (3EEE ~E2 CEB,E | A,>(cB)>(A G)>(FE)>D | [E2G,2][G2B,2][E2G,2] z2 :|

%%sep 2 1 500

